img/toolbar/func_beamdata.svg

<svg height="24" width="24" xmlns="http://www.w3.org/2000/svg" xmlns:xlink="http://www.w3.org/1999/xlink">
  <linearGradient id="a" gradientTransform="matrix(.2083332 0 0 .5833333 7.5 8.5)" gradientUnits="userSpaceOnUse" spreadMethod="pad" x1="12" x2="12" y1="0" y2="24">
    <stop offset="0" stop-color="#dbf6ff" stop-opacity=".545455"/>
    <stop offset="1" stop-color="#7ddcfd" stop-opacity=".676136"/>
  </linearGradient>
  <filter id="b" height="1.467019" width="1.193415" x="-.096708" y="-.233509">
    <feGaussianBlur stdDeviation=".97295539"/>
  </filter>
  <path d="m21.707792 22.434416c1.774156-4.795 1.78361-9.382208 0-13.4922084-6.707792 4.0577924-23.707792 4.0577924-23.707792 4.0577924v5s17 0 23.707792 4.434416z" fill="#fc0" fill-rule="evenodd" stroke="#ff9c00"/>
  <path d="m22.227273 17c1.209279-3.358781 1.240348-6.864185 0-10-6.383588 4.149172-23.227273 2.0129873-23.227273 2.0129873v4.9999997s16.420887-1.234002 23.227273 2.987013z" fill="#ffea93" fill-rule="evenodd" filter="url(#b)" transform="matrix(1 0 0 .6 0 8.592208)"/>
  <path d="m21.742869 8c2 5 2 10 0 15" fill="none" stroke="#454545" stroke-linecap="round" stroke-width="1.5"/>
  <path d="m7.5 8.5h5v14h-5z" fill="url(#a)" stroke="#00b4ff" stroke-linecap="round" stroke-opacity=".792929"/>
  <g fill="none" stroke="#182e6d">
    <path d="m3.4999998-1.442044v11"/>
    <path d="m5.9999998 6.557956-2.5 3-2.4999998-3" stroke-linecap="round"/>
    <g transform="translate(6 -4)">
      <path d="m3.4999998-1.442044v11"/>
      <path d="m5.9999998 6.557956-2.5 3-2.4999998-3" stroke-linecap="round"/>
    </g>
    <g transform="translate(14 -2)">
      <path d="m3.4999998-1.442044v11"/>
      <path d="m5.9999998 6.557956-2.5 3-2.4999998-3" stroke-linecap="round"/>
    </g>
  </g>
</svg>

<?xml version="1.0" encoding="UTF-8" standalone="no"?>
<!-- Created with Inkscape (http://www.inkscape.org/) -->
<svg
   xmlns:dc="http://purl.org/dc/elements/1.1/"
   xmlns:cc="http://creativecommons.org/ns#"
   xmlns:rdf="http://www.w3.org/1999/02/22-rdf-syntax-ns#"
   xmlns:svg="http://www.w3.org/2000/svg"
   xmlns="http://www.w3.org/2000/svg"
   xmlns:xlink="http://www.w3.org/1999/xlink"
   xmlns:sodipodi="http://sodipodi.sourceforge.net/DTD/sodipodi-0.dtd"
   xmlns:inkscape="http://www.inkscape.org/namespaces/inkscape"
   width="24"
   height="24"
   id="svg2742"
   sodipodi:version="0.32"
   inkscape:version="0.46"
   version="1.0"
   sodipodi:docname="func_beamdata.svg"
   inkscape:output_extension="org.inkscape.output.svg.inkscape"
   inkscape:export-filename="D:\Projects\rezonator 1.5\img\func_stabmap_24.png"
   inkscape:export-xdpi="90"
   inkscape:export-ydpi="90">
  <defs
     id="defs2744">
    <marker
       inkscape:stockid="Arrow2Mend"
       orient="auto"
       refY="0.0"
       refX="0.0"
       id="Arrow2Mend"
       style="overflow:visible;">
      <path
         id="path4953"
         style="font-size:12.0;fill-rule:evenodd;stroke-width:0.62500000;stroke-linejoin:round;"
         d="M 8.7185878,4.0337352 L -2.2072895,0.016013256 L 8.7185884,-4.0017078 C 6.9730900,-1.6296469 6.9831476,1.6157441 8.7185878,4.0337352 z "
         transform="scale(0.6) rotate(180) translate(0,0)" />
    </marker>
    <marker
       inkscape:stockid="Arrow2Lend"
       orient="auto"
       refY="0.0"
       refX="0.0"
       id="Arrow2Lend"
       style="overflow:visible;">
      <path
         id="path4947"
         style="font-size:12.0;fill-rule:evenodd;stroke-width:0.62500000;stroke-linejoin:round;"
         d="M 8.7185878,4.0337352 L -2.2072895,0.016013256 L 8.7185884,-4.0017078 C 6.9730900,-1.6296469 6.9831476,1.6157441 8.7185878,4.0337352 z "
         transform="scale(1.1) rotate(180) translate(1,0)" />
    </marker>
    <linearGradient
       id="linearGradient3924">
      <stop
         id="stop3926"
         offset="0"
         style="stop-color:#dbf6ff;stop-opacity:0.54545456;" />
      <stop
         id="stop3928"
         offset="1"
         style="stop-color:#7ddcfd;stop-opacity:0.67613637;" />
    </linearGradient>
    <linearGradient
       inkscape:collect="always"
       xlink:href="#linearGradient3924"
       id="linearGradient3930"
       gradientUnits="userSpaceOnUse"
       gradientTransform="matrix(0.2083332,0,0,0.5833333,7.5000003,8.5000001)"
       spreadMethod="pad"
       x1="12"
       y1="0"
       x2="12"
       y2="24" />
    <linearGradient
       inkscape:collect="always"
       id="linearGradient7639">
      <stop
         style="stop-color:#ff9c00;stop-opacity:1;"
         offset="0"
         id="stop7641" />
      <stop
         style="stop-color:#ff9c00;stop-opacity:0;"
         offset="1"
         id="stop7643" />
    </linearGradient>
    <linearGradient
       id="linearGradient7627">
      <stop
         style="stop-color:#ffcc00;stop-opacity:1;"
         offset="0"
         id="stop7629" />
      <stop
         id="stop7635"
         offset="0.530303"
         style="stop-color:#ffea8e;stop-opacity:1;" />
      <stop
         style="stop-color:#ffcc00;stop-opacity:1;"
         offset="1"
         id="stop7631" />
    </linearGradient>
    <inkscape:perspective
       sodipodi:type="inkscape:persp3d"
       inkscape:vp_x="0 : 526.18109 : 1"
       inkscape:vp_y="0 : 1000 : 0"
       inkscape:vp_z="744.09448 : 526.18109 : 1"
       inkscape:persp3d-origin="372.04724 : 350.78739 : 1"
       id="perspective2750" />
    <linearGradient
       inkscape:collect="always"
       xlink:href="#linearGradient7639"
       id="linearGradient7645"
       x1="13.918169"
       y1="12"
       x2="36.834165"
       y2="12"
       gradientUnits="userSpaceOnUse" />
    <inkscape:perspective
       id="perspective3407"
       inkscape:persp3d-origin="372.04724 : 350.78739 : 1"
       inkscape:vp_z="744.09448 : 526.18109 : 1"
       inkscape:vp_y="0 : 1000 : 0"
       inkscape:vp_x="0 : 526.18109 : 1"
       sodipodi:type="inkscape:persp3d" />
    <filter
       inkscape:collect="always"
       id="filter4784"
       x="-0.096707556"
       width="1.1934151"
       y="-0.23350929"
       height="1.4670186">
      <feGaussianBlur
         inkscape:collect="always"
         stdDeviation="0.97295539"
         id="feGaussianBlur4786" />
    </filter>
    <inkscape:perspective
       id="perspective10000"
       inkscape:persp3d-origin="372.04724 : 350.78739 : 1"
       inkscape:vp_z="744.09448 : 526.18109 : 1"
       inkscape:vp_y="0 : 1000 : 0"
       inkscape:vp_x="0 : 526.18109 : 1"
       sodipodi:type="inkscape:persp3d" />
  </defs>
  <sodipodi:namedview
     id="base"
     pagecolor="#ffffff"
     bordercolor="#666666"
     borderopacity="1.0"
     gridtolerance="10000"
     guidetolerance="10"
     objecttolerance="10"
     inkscape:pageopacity="0.0"
     inkscape:pageshadow="2"
     inkscape:zoom="27.223611"
     inkscape:cx="11.990325"
     inkscape:cy="14.740073"
     inkscape:document-units="px"
     inkscape:current-layer="layer1"
     showgrid="true"
     inkscape:window-width="1920"
     inkscape:window-height="1144"
     inkscape:window-x="-4"
     inkscape:window-y="-4">
    <inkscape:grid
       type="xygrid"
       id="grid2752"
       visible="true"
       enabled="true" />
  </sodipodi:namedview>
  <metadata
     id="metadata2747">
    <rdf:RDF>
      <cc:Work
         rdf:about="">
        <dc:format>image/svg+xml</dc:format>
        <dc:type
           rdf:resource="http://purl.org/dc/dcmitype/StillImage" />
      </cc:Work>
    </rdf:RDF>
  </metadata>
  <g
     inkscape:label="Layer 1"
     inkscape:groupmode="layer"
     id="layer1">
    <path
       id="path7109"
       style="fill:#ffcc00;fill-opacity:1;fill-rule:evenodd;stroke:#ff9c00;stroke-width:1px;stroke-linecap:butt;stroke-linejoin:miter;stroke-opacity:1"
       d="M 21.707792,22.434416 C 23.481948,17.639416 23.491402,13.052208 21.707792,8.9422076 C 15,13 -2,13 -2,13 C -2,13 -2,18 -2,18 C -2,18 15,18 21.707792,22.434416 z"
       sodipodi:nodetypes="ccccc" />
    <path
       sodipodi:nodetypes="ccccc"
       d="M 22.227273,17 C 23.436552,13.641219 23.467621,10.135815 22.227273,7 C 15.843685,11.149172 -1,9.0129873 -1,9.0129873 C -1,9.0129873 -1,14.012987 -1,14.012987 C -1,14.012987 15.420887,12.778985 22.227273,17 z"
       style="fill:#ffea93;fill-opacity:1;fill-rule:evenodd;stroke:none;stroke-width:1px;stroke-linecap:butt;stroke-linejoin:miter;stroke-opacity:1;filter:url(#filter4784)"
       id="path3171"
       transform="matrix(1,0,0,0.6,0,8.5922076)" />
    <path
       sodipodi:nodetypes="cc"
       id="path3187"
       d="M 21.742869,8 C 23.742869,13 23.742869,18 21.742869,23"
       style="fill:none;fill-rule:evenodd;stroke:#454545;stroke-width:1.49999988000000010;stroke-linecap:round;stroke-linejoin:miter;stroke-miterlimit:4;stroke-dasharray:none;stroke-opacity:1" />
    <rect
       y="8.5"
       x="7.5"
       height="14"
       width="5"
       id="rect3413"
       style="opacity:1;fill:url(#linearGradient3930);fill-opacity:1;fill-rule:nonzero;stroke:#00b4ff;stroke-width:1;stroke-linecap:round;stroke-linejoin:miter;stroke-miterlimit:4;stroke-dasharray:none;stroke-opacity:0.79292932" />
    <g
       id="g10008">
      <path
         sodipodi:nodetypes="cc"
         id="path5856"
         d="M 3.4999998,-1.442044 L 3.4999998,9.557956"
         style="fill:none;fill-rule:evenodd;stroke:#182e6d;stroke-width:1px;stroke-linecap:butt;stroke-linejoin:miter;stroke-opacity:1" />
      <path
         sodipodi:nodetypes="ccc"
         id="path6369"
         d="M 5.9999998,6.557956 L 3.4999998,9.557956 L 1,6.557956"
         style="fill:none;fill-rule:evenodd;stroke:#182e6d;stroke-width:1px;stroke-linecap:round;stroke-linejoin:miter;stroke-opacity:1" />
    </g>
    <g
       id="g10012"
       transform="translate(6,-4)">
      <path
         style="fill:none;fill-rule:evenodd;stroke:#182e6d;stroke-width:1px;stroke-linecap:butt;stroke-linejoin:miter;stroke-opacity:1"
         d="M 3.4999998,-1.442044 L 3.4999998,9.557956"
         id="path10014"
         sodipodi:nodetypes="cc" />
      <path
         style="fill:none;fill-rule:evenodd;stroke:#182e6d;stroke-width:1px;stroke-linecap:round;stroke-linejoin:miter;stroke-opacity:1"
         d="M 5.9999998,6.557956 L 3.4999998,9.557956 L 1,6.557956"
         id="path10016"
         sodipodi:nodetypes="ccc" />
    </g>
    <g
       transform="translate(14,-2)"
       id="g10018">
      <path
         sodipodi:nodetypes="cc"
         id="path10020"
         d="M 3.4999998,-1.442044 L 3.4999998,9.557956"
         style="fill:none;fill-rule:evenodd;stroke:#182e6d;stroke-width:1px;stroke-linecap:butt;stroke-linejoin:miter;stroke-opacity:1" />
      <path
         sodipodi:nodetypes="ccc"
         id="path10022"
         d="M 5.9999998,6.557956 L 3.4999998,9.557956 L 1,6.557956"
         style="fill:none;fill-rule:evenodd;stroke:#182e6d;stroke-width:1px;stroke-linecap:round;stroke-linejoin:miter;stroke-opacity:1" />
    </g>
  </g>
</svg>
